drivers/chargepoint/assets/icon.svg

<svg xmlns="http://www.w3.org/2000/svg" width="50" viewBox="0 0 1125 900" height="50" version="1.0">
	<defs>
		<clipPath id="a">
			<path d="M 164.554688 21 L 1016.554688 21 L 1016.554688 889.460938 L 164.554688 889.460938 Z M 164.554688 21"/>
		</clipPath>
	</defs>
	<path fill="#FFF" d="M-112.5 -90H1237.5V990H-112.5z"/>
	<path fill="#FFF" d="M-112.5 -90H1237.5V990H-112.5z"/>
	<path fill="#FFF" d="M-112.5 -90H1237.5V990H-112.5z"/>
	<path d="M 622.109375 368.410156 C 569.90625 368.410156 527.441406 410.886719 527.441406 463.101562 C 527.441406 515.316406 569.90625 557.792969 622.109375 557.792969 C 674.308594 557.792969 716.777344 515.316406 716.777344 463.101562 C 716.777344 410.886719 674.308594 368.410156 622.109375 368.410156 Z M 622.109375 526.230469 C 587.308594 526.230469 558.996094 497.910156 558.996094 463.101562 C 558.996094 428.292969 587.308594 399.972656 622.109375 399.972656 C 656.910156 399.972656 685.21875 428.292969 685.21875 463.101562 C 685.21875 497.910156 656.910156 526.230469 622.109375 526.230469 Z M 622.109375 526.230469"/>
	<path d="M 652.988281 412.132812 L 587.066406 470.113281 L 614.34375 470.113281 L 598.433594 519 L 662.082031 458.746094 L 634.804688 458.746094 Z M 652.988281 412.132812"/>
	<g clip-path="url(#a)">
		<path d="M 971.496094 166.097656 L 851.355469 118.027344 C 832.425781 61.816406 779.269531 21.207031 716.777344 21.207031 L 527.441406 21.207031 C 449.144531 21.207031 385.441406 84.925781 385.441406 163.246094 L 385.441406 534.121094 C 385.441406 581.984375 424.371094 620.921875 472.21875 620.921875 L 527.441406 620.921875 L 527.441406 731.394531 C 527.441406 801.011719 470.820312 857.648438 401.21875 857.648438 C 331.621094 857.648438 274.996094 801.011719 274.996094 731.394531 L 274.996094 461.515625 C 310.960938 454.179688 338.109375 422.300781 338.109375 384.191406 L 338.109375 344.664062 C 347.667969 337.457031 353.886719 326.042969 353.886719 313.171875 C 353.886719 291.417969 336.191406 273.71875 314.441406 273.71875 L 306.554688 273.71875 L 306.554688 242.15625 C 306.554688 233.441406 299.488281 226.375 290.777344 226.375 C 282.0625 226.375 274.996094 233.441406 274.996094 242.15625 L 274.996094 273.71875 L 243.441406 273.71875 L 243.441406 242.15625 C 243.441406 233.441406 236.378906 226.375 227.664062 226.375 C 218.953125 226.375 211.886719 233.441406 211.886719 242.15625 L 211.886719 273.71875 L 203.996094 273.71875 C 182.25 273.71875 164.554688 291.417969 164.554688 313.171875 C 164.554688 326.042969 170.773438 337.457031 180.332031 344.664062 L 180.332031 384.191406 C 180.332031 422.300781 207.480469 454.183594 243.441406 461.515625 L 243.441406 731.394531 C 243.441406 818.414062 314.222656 889.214844 401.21875 889.214844 C 488.21875 889.214844 558.996094 818.414062 558.996094 731.394531 L 558.996094 620.921875 L 685.21875 620.921875 L 685.21875 747.175781 C 685.21875 825.496094 748.921875 889.214844 827.21875 889.214844 C 905.519531 889.214844 969.21875 825.496094 969.21875 747.175781 L 969.21875 461.101562 C 996.410156 454.078125 1016.554688 429.335938 1016.554688 399.972656 L 1016.554688 232.664062 C 1016.554688 203.175781 998.867188 177.050781 971.496094 166.097656 Z M 196.109375 313.171875 C 196.109375 308.820312 199.648438 305.28125 203.996094 305.28125 L 314.441406 305.28125 C 318.792969 305.28125 322.332031 308.820312 322.332031 313.171875 C 322.332031 317.527344 318.792969 321.066406 314.441406 321.066406 L 203.996094 321.066406 C 199.648438 321.066406 196.109375 317.527344 196.109375 313.171875 Z M 211.886719 384.191406 L 211.886719 352.628906 L 306.554688 352.628906 L 306.554688 384.191406 C 306.554688 410.296875 285.320312 431.539062 259.21875 431.539062 C 233.121094 431.539062 211.886719 410.296875 211.886719 384.191406 Z M 416.996094 163.246094 C 416.996094 102.328125 466.542969 52.773438 527.441406 52.773438 L 716.777344 52.773438 C 777.675781 52.773438 827.21875 102.328125 827.21875 163.246094 L 827.21875 305.28125 L 416.996094 305.28125 Z M 472.21875 589.355469 C 441.769531 589.355469 416.996094 564.578125 416.996094 534.121094 L 416.996094 336.847656 L 827.21875 336.847656 L 827.21875 534.121094 C 827.21875 564.578125 802.445312 589.355469 771.996094 589.355469 Z M 937.664062 747.175781 C 937.664062 808.09375 888.121094 857.648438 827.21875 857.648438 C 766.320312 857.648438 716.777344 808.09375 716.777344 747.175781 L 716.777344 620.921875 L 771.996094 620.921875 C 819.847656 620.921875 858.777344 581.984375 858.777344 534.121094 L 858.777344 262.367188 L 890.332031 270.257812 L 890.332031 399.972656 C 890.332031 429.335938 910.476562 454.078125 937.664062 461.101562 Z M 984.996094 399.972656 C 984.996094 417.378906 970.839844 431.539062 953.441406 431.539062 C 936.042969 431.539062 921.886719 417.378906 921.886719 399.972656 L 921.886719 384.191406 L 984.996094 384.191406 Z M 984.996094 352.628906 L 921.886719 352.628906 L 921.886719 257.9375 C 921.886719 250.695312 916.960938 244.382812 909.933594 242.625 L 858.777344 229.832031 L 858.777344 154.992188 L 959.777344 195.402344 C 975.097656 201.535156 984.996094 216.160156 984.996094 232.664062 Z M 984.996094 352.628906"/>
	</g>
	<path d="M 738.46875 145.640625 L 733.910156 145.640625 C 731.148438 128.792969 716.488281 115.898438 698.875 115.898438 L 547.164062 115.898438 C 527.589844 115.898438 511.664062 131.828125 511.664062 151.410156 L 511.664062 238.210938 C 511.664062 257.789062 527.589844 273.71875 547.164062 273.71875 L 698.875 273.71875 C 718.449219 273.71875 734.375 257.789062 734.375 238.210938 L 734.375 236.6875 L 738.46875 236.6875 C 752.605469 236.6875 764.109375 225.183594 764.109375 211.042969 L 764.109375 171.289062 C 764.109375 157.144531 752.605469 145.640625 738.46875 145.640625 Z M 574.777344 242.15625 L 547.164062 242.15625 C 544.988281 242.15625 543.21875 240.386719 543.21875 238.210938 L 543.21875 151.410156 C 543.21875 149.234375 544.988281 147.464844 547.164062 147.464844 L 574.777344 147.464844 Z M 637.886719 242.15625 L 606.332031 242.15625 L 606.332031 147.464844 L 637.886719 147.464844 Z M 732.554688 205.125 L 718.597656 205.125 C 709.882812 205.125 702.820312 212.191406 702.820312 220.90625 L 702.820312 238.210938 C 702.820312 240.386719 701.050781 242.15625 698.875 242.15625 L 669.441406 242.15625 L 669.441406 147.464844 L 698.875 147.464844 C 701.050781 147.464844 702.820312 149.234375 702.820312 151.410156 L 702.820312 161.421875 C 702.820312 170.136719 709.882812 177.203125 718.597656 177.203125 L 732.554688 177.203125 Z M 732.554688 205.125"/>
</svg>

<?xml version="1.0" encoding="UTF-8" standalone="no"?>
<svg
   width="40"
   viewBox="0 0 900 900"
   height="40"
   version="1.0"
   id="svg8"
   sodipodi:docname="icon.svg"
   inkscape:version="1.3 (0e150ed, 2023-07-21)"
   xmlns:inkscape="http://www.inkscape.org/namespaces/inkscape"
   xmlns:sodipodi="http://sodipodi.sourceforge.net/DTD/sodipodi-0.dtd"
   xmlns="http://www.w3.org/2000/svg"
   xmlns:svg="http://www.w3.org/2000/svg">
  <sodipodi:namedview
     id="namedview1"
     pagecolor="#505050"
     bordercolor="#eeeeee"
     borderopacity="1"
     inkscape:showpageshadow="0"
     inkscape:pageopacity="0"
     inkscape:pagecheckerboard="0"
     inkscape:deskcolor="#505050"
     inkscape:zoom="17.525"
     inkscape:cx="20"
     inkscape:cy="20"
     inkscape:window-width="1392"
     inkscape:window-height="1212"
     inkscape:window-x="0"
     inkscape:window-y="25"
     inkscape:window-maximized="0"
     inkscape:current-layer="svg8" />
  <defs
     id="defs1">
    <clipPath
       clipPathUnits="userSpaceOnUse"
       id="clipPath8">
      <g
         id="g9">
        <path
           d="M 164.55469,21 H 1016.5547 V 889.46094 H 164.55469 Z m 0,0"
           id="path9" />
      </g>
    </clipPath>
  </defs>
  <path
     d="m 360.17648,375.81518 c -44.6727,0 -81.0119,36.34923 -81.0119,81.03196 0,44.68273 36.3392,81.03196 81.0119,81.03196 44.66936,0 81.0119,-36.34923 81.0119,-81.03196 0,-44.68273 -36.34254,-81.03196 -81.0119,-81.03196 z m 0,135.05438 c -29.78069,0 -54.00905,-24.23505 -54.00905,-54.02242 0,-29.78737 24.22836,-54.02242 54.00905,-54.02242 29.78069,0 54.00571,24.23505 54.00571,54.02242 0,29.78737 -24.22502,54.02242 -54.00571,54.02242 z m 0,0"
     id="path5"
     style="stroke-width:0.855748" />
  <path
     d="m 386.60104,413.23075 -56.4125,49.61665 h 23.34253 l -13.61508,41.8347 54.467,-51.56214 h -23.34252 z m 0,0"
     id="path6"
     style="stroke-width:0.855748" />
  <path
     d="M 971.49609,166.09766 851.35547,118.02734 C 832.42578,61.816406 779.26953,21.207031 716.77734,21.207031 H 527.44141 c -78.29688,0 -142,63.71875 -142,142.039059 v 370.875 c 0,47.86328 38.92968,86.80078 86.77734,86.80078 h 213 v 126.25391 c 0,78.32031 63.70312,142.03906 142,142.03906 78.30078,0 142,-63.71875 142,-142.03906 V 461.10156 c 27.19141,-7.02344 47.33595,-31.76562 47.33595,-61.1289 v -167.3086 c 0,-29.48828 -17.68751,-55.61328 -45.05861,-66.5664 z m -554.5,-2.85157 c 0,-60.91796 49.54688,-110.472652 110.44532,-110.472652 h 189.33593 c 60.89844,0 110.44141,49.554692 110.44141,110.472652 V 305.28125 H 416.99609 Z m 55.22266,426.10938 c -30.44922,0 -55.22266,-24.77735 -55.22266,-55.23438 V 336.84766 h 410.22266 v 197.27343 c 0,30.45703 -24.77344,55.23438 -55.22266,55.23438 z m 465.44531,157.82031 c 0,60.91797 -49.54297,110.47266 -110.44531,110.47266 -60.89844,0 -110.44141,-49.55469 -110.44141,-110.47266 V 620.92187 h 55.21875 c 47.85157,0 86.78125,-38.9375 86.78125,-86.80078 v -271.7539 l 31.55469,7.89062 v 129.71485 c 0,29.36328 20.14453,54.10546 47.33203,61.1289 z m 47.33203,-347.20312 c 0,17.40625 -14.15625,31.5664 -31.55468,31.5664 -17.39844,0 -31.55469,-14.16015 -31.55469,-31.5664 v -15.78125 h 63.10937 z m 0,-47.34375 H 921.88672 V 257.9375 c 0,-7.24219 -4.92578,-13.55469 -11.95313,-15.3125 l -51.15625,-12.79297 v -74.83984 l 101,40.41015 c 15.32032,6.13282 25.21875,20.75782 25.21875,37.26172 z"
     id="path7"
     clip-path="url(#clipPath8)"
     transform="translate(-253.47913,-3.0063558)"
     sodipodi:nodetypes="ccssssscssscsscssssccsssccsssssscssccscssssccsccsccccsc" />
  <path
     d="m 447.88288,144.35545 h -3.52524 c -2.13567,-13.02855 -13.4726,-23.00009 -27.09322,-23.00009 H 299.94399 c -15.13705,0 -27.4527,12.31867 -27.4527,27.46176 v 67.12439 c 0,15.14006 12.31565,27.45874 27.4527,27.45874 h 117.32043 c 15.13704,0 27.4527,-12.31868 27.4527,-27.45874 v -1.1781 h 3.16576 c 10.93214,0 19.82829,-8.89615 19.82829,-19.83131 v -30.74232 c 0,-10.93818 -8.89615,-19.83433 -19.82829,-19.83433 z m -126.58511,74.63703 h -21.35378 c -1.68256,0 -3.05097,-1.36841 -3.05097,-3.05097 v -67.12439 c 0,-1.68257 1.36841,-3.05097 3.05097,-3.05097 h 21.35378 z m 48.80346,0 H 345.6995 v -73.22633 h 24.40173 z m 73.20821,-28.63684 h -10.79319 c -6.73932,0 -12.20086,5.46456 -12.20086,12.20388 v 13.38199 c 0,1.68256 -1.36841,3.05097 -3.05097,3.05097 h -22.76146 v -73.22633 h 22.76146 c 1.68256,0 3.05097,1.3684 3.05097,3.05097 v 7.74222 c 0,6.73932 5.46154,12.20388 12.20086,12.20388 h 10.79319 z m 0,0"
     id="path8"
     inkscape:label="path8"
     style="fill:#000000;fill-opacity:1;stroke:none;stroke-width:0;stroke-dasharray:none;stroke-opacity:1" />
</svg>
